build/svg/cmd/sc_hyphenate.svg

<?xml version="1.0" encoding="UTF-8" standalone="no"?>
<svg
   xmlns:dc="http://purl.org/dc/elements/1.1/"
   xmlns:cc="http://creativecommons.org/ns#"
   xmlns:rdf="http://www.w3.org/1999/02/22-rdf-syntax-ns#"
   xmlns:svg="http://www.w3.org/2000/svg"
   xmlns="http://www.w3.org/2000/svg"
   xmlns:sodipodi="http://sodipodi.sourceforge.net/DTD/sodipodi-0.dtd"
   xmlns:inkscape="http://www.inkscape.org/namespaces/inkscape"
   viewBox="0 0 16 16"
   version="1.1"
   id="svg6"
   sodipodi:docname="sc_hyphenate.svg"
   inkscape:version="0.92.5 (2060ec1f9f, 2020-04-08)"
   inkscape:export-filename="/home/jupiter007/Libreoffice yaru theme fullcolor/build/cmd/sc_hyphenate.png"
   inkscape:export-xdpi="95"
   inkscape:export-ydpi="95">
  <metadata
     id="metadata12">
    <rdf:RDF>
      <cc:Work
         rdf:about="">
        <dc:format>image/svg+xml</dc:format>
        <dc:type
           rdf:resource="http://purl.org/dc/dcmitype/StillImage" />
      </cc:Work>
    </rdf:RDF>
  </metadata>
  <defs
     id="defs10" />
  <sodipodi:namedview
     pagecolor="#ffffff"
     bordercolor="#666666"
     borderopacity="1"
     objecttolerance="10"
     gridtolerance="10"
     guidetolerance="10"
     inkscape:pageopacity="0"
     inkscape:pageshadow="2"
     inkscape:window-width="1920"
     inkscape:window-height="1011"
     id="namedview8"
     showgrid="true"
     inkscape:zoom="45.254834"
     inkscape:cx="8.976776"
     inkscape:cy="7.2616679"
     inkscape:window-x="1920"
     inkscape:window-y="32"
     inkscape:window-maximized="1"
     inkscape:current-layer="svg6"
     inkscape:snap-global="true">
    <inkscape:grid
       type="xygrid"
       id="grid837" />
  </sodipodi:namedview>
  <path
     inkscape:connector-curvature="0"
     style="opacity:0.6;fill:#000000;fill-opacity:1;stroke:#000000;stroke-width:2;stroke-linecap:butt;stroke-linejoin:round;stroke-miterlimit:4;stroke-dasharray:none;stroke-opacity:1"
     d="m 7,12 3,-2 v 1 h 2 c 1,0 1,0 1,-2 h 2 v 1 c 0,2 0,3 -2,3 h -3 v 1 z"
     id="path865"
     sodipodi:nodetypes="ccccccccccc" />
  <path
     style="opacity:0.6;fill:#000000;stroke:#000000;stroke-width:2;stroke-linejoin:round;stroke-miterlimit:4;stroke-dasharray:none"
     id="path853"
     d="M 4,9 C 2.61929,9 1.5,10.11929 1.5,11.5 1.5,12.88071 2.61929,14 4,14 H 5 V 13 H 4 C 3.17157,13 2.5,12.32843 2.5,11.5 2.5,10.67157 3.17157,10 4,10 H 5 V 9 Z"
     inkscape:connector-curvature="0" />
  <path
     style="opacity:0.6;fill:#000000;stroke:#000000;stroke-width:2;stroke-linejoin:round;stroke-miterlimit:4;stroke-dasharray:none"
     inkscape:connector-curvature="0"
     id="path850"
     d="M 9,2 V 4 4.1875 4.7871094 6.2617188 7 h 2.269531 C 12.292302,7 13,6.3426149 13,5.5253906 13,4.9272846 12.657021,4.419467 12.019531,4.1875 12.117332,3.9817 12.191406,3.7483 12.191406,3.5 12.191406,2.669 11.575674,2 10.808594,2 H 9.923828 Z m 1,1 h 0.884766 c 0.255699,0 0.460937,0.22299 0.460937,0.5 0,0.27701 -0.205238,0.5 -0.460937,0.5 H 10 Z m 0,2 h 0.75 0.417969 C 11.629916,5 12,5.22299 12,5.5 12,5.776995 11.629916,6 11.167969,6 H 10 Z" />
  <path
     inkscape:connector-curvature="0"
     id="path848"
     d="M 3.2734375,2 1.6464844,7 H 2.6972656 L 3.0234375,6 h 1.953125 L 5.3027344,7 H 6.3535156 L 4.7265625,2 Z M 4,3 4.6523438,5 H 3.3476562 Z"
     style="opacity:0.6;fill:#000000;fill-opacity:1;fill-rule:evenodd;stroke:#000000;stroke-width:2;stroke-linecap:butt;stroke-linejoin:round;stroke-miterlimit:4;stroke-dasharray:none;stroke-opacity:1" />
  <path
     d="M 4,9 C 2.61929,9 1.5,10.11929 1.5,11.5 1.5,12.88071 2.61929,14 4,14 H 5 V 13 H 4 C 3.17157,13 2.5,12.32843 2.5,11.5 2.5,10.67157 3.17157,10 4,10 H 5 V 9 Z"
     id="path826"
     style="fill:#ffffff"
     inkscape:connector-curvature="0" />
  <path
     d="M 9,2 V 4 4.1875 4.7871094 6.2617188 7 h 2.269531 C 12.292302,7 13,6.3426149 13,5.5253906 13,4.9272846 12.657021,4.419467 12.019531,4.1875 12.117332,3.9817 12.191406,3.7483 12.191406,3.5 12.191406,2.669 11.575674,2 10.808594,2 H 9.923828 Z m 1,1 h 0.884766 c 0.255699,0 0.460937,0.22299 0.460937,0.5 0,0.27701 -0.205238,0.5 -0.460937,0.5 H 10 Z m 0,2 h 0.75 0.417969 C 11.629916,5 12,5.22299 12,5.5 12,5.776995 11.629916,6 11.167969,6 H 10 Z"
     id="path852"
     inkscape:connector-curvature="0"
     style="fill:#ffffff" />
  <path
     style="opacity:1;fill:#ffffff;fill-opacity:1;fill-rule:evenodd;stroke:none;stroke-width:0.63200003;stroke-linecap:butt;stroke-linejoin:round;stroke-miterlimit:4;stroke-dasharray:none;stroke-opacity:1"
     d="M 3.2734375,2 1.6464844,7 H 2.6972656 L 3.0234375,6 h 1.953125 L 5.3027344,7 H 6.3535156 L 4.7265625,2 Z M 4,3 4.6523438,5 H 3.3476562 Z"
     id="rect833"
     inkscape:connector-curvature="0" />
  <path
     sodipodi:nodetypes="ccccccccccc"
     id="path841"
     d="m 7,12 3,-2 v 1 h 2 c 1,0 1,0 1,-2 h 2 v 1 c 0,2 0,3 -2,3 h -3 v 1 z"
     style="fill:#aee3f8;fill-opacity:1;stroke:none;stroke-width:1px;stroke-linecap:butt;stroke-linejoin:miter;stroke-opacity:1"
     inkscape:connector-curvature="0" />
</svg>

<svg xmlns="http://www.w3.org/2000/svg" viewBox="0 0 16 16"><path d="M7 12l3-2v1h2c1 0 1 0 1-2h2v1c0 2 0 3-2 3h-3v1zM4 9a2.5 2.5 0 000 5h1v-1H4a1.5 1.5 0 110-3h1V9zM9 2v5h2.27C12.292 7 13 6.343 13 5.525c0-.598-.343-1.106-.98-1.338a1.61 1.61 0 00.171-.687c0-.831-.615-1.5-1.382-1.5h-.885zm1 1h.885c.255 0 .46.223.46.5s-.205.5-.46.5H10zm0 2h1.168c.462 0 .832.223.832.5s-.37.5-.832.5H10z" opacity=".6" stroke="#000" stroke-width="2" stroke-linejoin="round"/><path d="M3.273 2L1.646 7h1.051l.326-1h1.954l.326 1h1.05L4.728 2zM4 3l.652 2H3.348z" opacity=".6" fill-rule="evenodd" stroke="#000" stroke-width="2" stroke-linejoin="round"/><path d="M4 9a2.5 2.5 0 000 5h1v-1H4a1.5 1.5 0 110-3h1V9zM9 2v5h2.27C12.292 7 13 6.343 13 5.525c0-.598-.343-1.106-.98-1.338a1.61 1.61 0 00.171-.687c0-.831-.615-1.5-1.382-1.5h-.885zm1 1h.885c.255 0 .46.223.46.5s-.205.5-.46.5H10zm0 2h1.168c.462 0 .832.223.832.5s-.37.5-.832.5H10z" fill="#fff"/><path d="M3.273 2L1.646 7h1.051l.326-1h1.954l.326 1h1.05L4.728 2zM4 3l.652 2H3.348z" fill="#fff" fill-rule="evenodd"/><path d="M7 12l3-2v1h2c1 0 1 0 1-2h2v1c0 2 0 3-2 3h-3v1z" fill="#aee3f8"/></svg>
